!!!COM: Palestrina, Giovanni Perluigi da
!!!OPR: Missa In semidupl. maj. (II)
!!!OMD: Credo
!!!OTL: Et vitam
**kern	**kern	**kern	**kern	**kern
*Ibass	*Itenor	*Itenor	*Icalto	*Icant
!Bassus	!Tenor 2	!Tenor 1	!Altus	!Cantus
*clefF4	*clefGv2	*clefGv2	*clefG2	*clefG2
*k[b-]	*k[b-]	*k[b-]	*k[b-]	*k[b-]
*F:ion	*F:ion	*F:ion	*F:ion	*F:ion
*M4/2	*M4/2	*M4/2	*M4/2	*M4/2
=159	=159	=159	=159	=159
0r	0r	0r	1r	1g
.	.	.	1c	1e
=160	=160	=160	=160	=160
0r	0r	0r	1A	2.f
.	.	.	.	4e
.	.	.	2.B-	2d
.	.	.	.	2f
.	.	.	4A	.
=161	=161	=161	=161	=161
0r	0r	0r	2G	2b-
.	.	.	2F	2a
.	.	.	2B-	4g
.	.	.	.	4f
.	.	.	2A	[2f
=162	=162	=162	=162	=162
0r	0r	1r	2G	4f]
.	.	.	.	4e
.	.	.	1c	4e
.	.	.	.	8d
.	.	.	.	8c
.	.	1G	.	2d
.	.	.	2B	2d
=163	=163	=163	=163	=163
1C	0r	1E	1c	2c
.	.	.	.	2g
1AA	.	2.F	2r	1a
.	.	.	2c	.
.	.	4E	.	.
=164	=164	=164	=164	=164
2.BB-	0r	2D	2d	1f
.	.	2F	2.d	.
4AA	.	.	.	.
2GG	.	2B-	.	2r
.	.	.	4B-	.
2FF	.	2A	2c	2f
=165	=165	=165	=165	=165
2BB-	0r	4G	2d	2g
.	.	4F	.	.
2AA	.	1F	2c	2a
2GG	.	.	2B-	2b-
2GG	.	2E	2G	2b-
=166	=166	=166	=166	=166
1FF	1c	1F	2.A	2a
.	.	.	.	2.cc
.	.	.	4B-	.
1FF	1A	2r	1c	.
.	.	.	.	4b-
.	.	[2F	.	4a
.	.	.	.	4g
=167	=167	=167	=167	=167
2BB-	2.B-	2F]	1d	2f
4GG	.	2G	.	1b-
4AA	4A	.	.	.
4BB-	2G	1D	[1d	.
4C	.	.	.	.
2D	2F	.	.	2a
=168	=168	=168	=168	=168
2BB-	2B-	2r	2d]	4g
.	.	.	.	4f
2FF	2A	2F	2c	1f
1C	2G	2G	[1c	.
.	2G	2c	.	2e
=169	=169	=169	=169	=169
[0FF	[0F	2.A	1c]	[0f
.	.	4B-	.	.
.	.	2c	2.A	.
.	.	2c	.	.
.	.	.	4B-	.
=170	=170	=170	=170	=170
1FF_	1F_	[0A	[0c	1f_
1FF_	1F_	.	.	1f_
=171	=171	=171	=171	=171
0FF]	0F]	0A]	0c]	0f]
=172	=172	=172	=172	=172
1r	0r	0r	1f	0r
1F	.	.	2d	.
.	.	.	2c	.
=173	=173	=173	=173	=173
2D	1r	0r	2d	0r
2C	.	.	2e	.
2.D	1F	.	[1f	.
4E	.	.	.	.
=174	=174	=174	=174	=174
2F	2D	0r	2f]	0r
2.G	2C	.	2e	.
.	2.D	.	1d	.
4F	.	.	.	.
[2F	.	.	.	.
.	4E	.	.	.
=175	=175	=175	=175	=175
2F]	2F	1r	1c	0r
2E	2G	.	.	.
2F	2F	1c	2.A	.
4FF	[2F	.	.	.
4GG	.	.	4B-	.
=176	=176	=176	=176	=176
4AA	2F]	2A	0c	1r
4BB-	.	.	.	.
2C	2E	2G	.	.
1FF	2.F	2.A	.	1cc
.	4G	4B-	.	.
=177	=177	=177	=177	=177
0r	2A	2c	1r	2a
.	2B-	2.d	.	2g
.	1A	.	1F	2.a
.	.	4c	.	.
.	.	[2c	.	.
.	.	.	.	4b-
=178	=178	=178	=178	=178
0r	1r	2c]	2A	2cc
.	.	2B	2G	2.dd
.	2r	2.c	2.A	.
.	.	.	.	4cc
.	2F	.	.	[2cc
.	.	4B-	4B-	.
=179	=179	=179	=179	=179
0r	2A	2A	2c	2cc]
.	2B-	2G	2.d	2b-
.	1c	2F	.	2a
.	.	.	4c	.
.	.	2A	[2c	2f
=180	=180	=180	=180	=180
1r	1d	2G	2c]	2g
.	.	2.G	2B	2g
1C	[1c	.	2c	1e
.	.	4F	.	.
.	.	4E	2G	.
.	.	4D	.	.
=181	=181	=181	=181	=181
2AA	2c]	2C	2A	2f
2GG	2B-	2D	2B-	2g
2.AA	2.A	2C	[1c	4f
.	.	.	.	4e
.	.	[2c	.	2a
4BB-	8G	.	.	.
.	8F	.	.	.
=182	=182	=182	=182	=182
2C	2E	4c]	0c]	2g
.	.	4B-	.	.
2FF	2F	2A	.	1f
1C	1G	2G	.	.
.	.	2c	.	2e
=183	=183	=183	=183	=183
[0FF	[0F	[0A	[0c	[0f
=184	=184	=184	=184	=184
0FF]	0F]	0A]	0c]	0f]
==	==	==	==	==
*-	*-	*-	*-	*-
!!!CDT: 1525/^1526/-1594/2/2
!!!OCY: Italia
!!!AGN: Mass (Paraphrase)
!!!AST: renaissance, vocal
!!!ASW: Gregorian Mass
!!!PWK: Masses, Book Mantuan II
!!!RNB: Cadence finals: C
!!!YOR: Le Opere Complete, v. 19, p. 87
!!!YOO: Rome, Italy: Fratelli Scalera
!!!END: 1992//
!!!EED: John Miller
!!!YEC: Copyright 2000, John Miller
!!!YEN: United States of America
!!!YEM: Rights to all derivative electronic formats reserved.
!!!YEM: Refer to licensing agreement for further details.
!!!YEM: This file must be accompanied by the licensing agreement.
!!!YEM: A copy of the licensing agreement may be found at http://www.music-cog.ohio-state.edu/HumdrumDatabases/Palestrina/license.txt
!!!EMD: converted to Humdrum by Bret Aarden
